packages/foundations/assets/icons/functional/images/logos/db.svg

<svg xmlns="http://www.w3.org/2000/svg" width="32" height="32" fill="none"><path fill="#1A1C1F" fill-rule="evenodd" d="m6.184 6.718-1.577.029-.407.201c-.827.409-1.394 1.192-1.484 2.049-.06.576-.057 13.249.003 13.921.067.74.208 1.031.77 1.593.619.619.827.708 1.797.771 1.004.064 20.424.064 21.428 0 .924-.06 1.157-.152 1.716-.679.417-.394.64-.719.777-1.136.091-.276.098-.703.114-7.054.01-3.776-.004-6.997-.031-7.295-.041-.454-.079-.595-.248-.938a2.67 2.67 0 0 0-1.233-1.228l-.417-.205-1.256-.035C24.67 6.671 8.5 6.676 6.184 6.718m20.981 2.073.2.205-.016 6.991-.016 6.992-.111.149a.63.63 0 0 1-.32.204c-.29.076-21.514.076-21.804 0a.63.63 0 0 1-.32-.204l-.111-.149-.016-6.992-.016-6.991.2-.205.2-.204h21.93zM6.347 16.026v6.117l2.6-.024c2.874-.027 3.087-.049 3.97-.402 1.695-.679 2.604-2.274 2.77-4.859.223-3.478-.736-5.722-2.826-6.611-.633-.269-.809-.284-3.754-.312l-2.76-.027zm10.666-.002v6.121l2.734-.028c2.895-.029 3.179-.051 3.986-.312.868-.28 1.639-.891 1.966-1.56.346-.703.423-1.857.173-2.561-.334-.939-1.067-1.569-2.245-1.933-.048-.015.07-.103.293-.219a3.2 3.2 0 0 0 1.598-2.043c.29-1.23-.325-2.566-1.452-3.159-.674-.354-.677-.354-4.026-.393l-3.027-.034zm4.799-4.098c.592.198.903.734.837 1.442q-.079.833-.833 1.206c-.213.105-.343.122-1.056.137l-.813.019v-2.958l.786.028c.558.02.872.057 1.079.126m-11.199-.03c1.648.263 2.27 1.698 2.092 4.83-.065 1.158-.154 1.591-.444 2.165-.459.91-1.165 1.262-2.541 1.267l-.44.002v-8.32h.493c.272.001.65.026.84.056m11.423 5.219c.378.118.697.382.869.721.142.279.161.368.157.747-.008.686-.282 1.121-.864 1.37-.279.12-.994.205-1.731.206l-.52.001v-3.159l.946.027c.521.014 1.035.053 1.143.087"/></svg>

<svg width="32" height="32" viewBox="0 0 32 32" fill="none" xmlns="http://www.w3.org/2000/svg"><path d="M6.184 6.718 L 4.607 6.747 4.200 6.948 C 3.373 7.357,2.806 8.140,2.716 8.997 C 2.656 9.573,2.659 22.246,2.719 22.918 C 2.786 23.658,2.927 23.949,3.489 24.511 C 4.108 25.130,4.316 25.219,5.286 25.282 C 6.290 25.346,25.710 25.346,26.714 25.282 C 27.638 25.222,27.871 25.130,28.430 24.603 C 28.847 24.209,29.070 23.884,29.207 23.467 C 29.298 23.191,29.305 22.764,29.321 16.413 C 29.331 12.637,29.317 9.416,29.290 9.118 C 29.249 8.664,29.211 8.523,29.042 8.180 C 28.775 7.640,28.356 7.223,27.809 6.952 L 27.392 6.747 26.136 6.712 C 24.670 6.671,8.500 6.676,6.184 6.718 M27.165 8.791 L 27.365 8.996 27.349 15.987 L 27.333 22.979 27.222 23.128 C 27.156 23.216,27.025 23.300,26.902 23.332 C 26.612 23.408,5.388 23.408,5.098 23.332 C 4.975 23.300,4.844 23.216,4.778 23.128 L 4.667 22.979 4.651 15.987 L 4.635 8.996 4.835 8.791 L 5.035 8.587 16.000 8.587 L 26.965 8.587 27.165 8.791 M6.347 16.026 L 6.347 22.143 8.947 22.119 C 11.821 22.092,12.034 22.070,12.917 21.717 C 14.612 21.038,15.521 19.443,15.687 16.858 C 15.910 13.380,14.951 11.136,12.861 10.247 C 12.228 9.978,12.052 9.963,9.107 9.935 L 6.347 9.908 6.347 16.026 M17.013 16.024 L 17.013 22.145 19.747 22.117 C 22.642 22.088,22.926 22.066,23.733 21.805 C 24.601 21.525,25.372 20.914,25.699 20.245 C 26.045 19.542,26.122 18.388,25.872 17.684 C 25.538 16.745,24.805 16.115,23.627 15.751 C 23.579 15.736,23.697 15.648,23.920 15.532 C 24.703 15.124,25.318 14.338,25.518 13.489 C 25.808 12.259,25.193 10.923,24.066 10.330 C 23.392 9.976,23.389 9.976,20.040 9.937 L 17.013 9.903 17.013 16.024 M21.812 11.926 C 22.404 12.124,22.715 12.660,22.649 13.368 C 22.597 13.922,22.318 14.326,21.816 14.574 C 21.603 14.679,21.473 14.696,20.760 14.711 L 19.947 14.730 19.947 13.251 L 19.947 11.772 20.733 11.800 C 21.291 11.820,21.605 11.857,21.812 11.926 M10.613 11.896 C 12.261 12.159,12.883 13.594,12.705 16.726 C 12.640 17.884,12.551 18.317,12.261 18.891 C 11.802 19.801,11.096 20.153,9.720 20.158 L 9.280 20.160 9.280 16.000 L 9.280 11.840 9.773 11.840 C 10.045 11.841,10.423 11.866,10.613 11.896 M22.036 17.115 C 22.414 17.233,22.733 17.497,22.905 17.836 C 23.047 18.115,23.066 18.204,23.062 18.583 C 23.054 19.269,22.780 19.704,22.198 19.953 C 21.919 20.073,21.204 20.158,20.467 20.159 L 19.947 20.160 19.947 18.581 L 19.947 17.001 20.893 17.028 C 21.414 17.042,21.928 17.081,22.036 17.115 " fill="#1A1C1F" stroke="none" fill-rule="evenodd"></path></svg>
